X:91
%%topspace -50
T:Farmer's Jamboree
M:6/8
L:1/8
K:A
A | "A"efe "E7"dcB | "A"A2c E2c | c^Bc edc | "E7"=B3 Bcd | 
"A"efe "E7"dcB | "A"A2c E2f | "E7"gfe dcB | "A"A3- A2 :|
|: c | "A"e2c a2g | "D"f2d "Bm"b2a | "E7"g2B Bdf | "A"e3 ecd | 
"A"e2c a2g | "D"f2d "Bm"b2a | "E7"gfe dcB | "A"A3- A2 :|]

